X: 32484
T: Plains Of Kildare
R: jig
M: 6/8
K: Edorian
A,|[M:15/8] B,CD EFG ABd D2 E2zA,|B,CD EFG ABd D2 E2zA,|
[M:14/8] B,CD EFG ABd E2 E3|[M:6/8]AE D2 D2|[M:6/8] G2E FED|
E2E EFG|FE2 E2A|ABA GFE|D2E E2D|
E2E EFG|FE2 E2G|BdB AGF|GFE FED|
E2E EFG|F2E E2A|[M:9/8] BAG ABd e2e|
[M:6/8]fee e2d|BAB d3|D2E F2E|[M:3/28]FED|
[M:15/8] B,CD EFG ABd D2 E2zA,|B,CD EFG ABd D2 E2zA,|[M:13/28]B,CD EFG ABd E2 E2|[M:7/8]DCD2 D2D|
[M:1/8]GFE FED E2 E2E|

